X:17
T:Hungarian Waltz. Le4.017, The
B:L.Leadley MS#4 c1850
Z:Village Music Project, 2016 Steve Mansfield
M:3/8
L:1/8
Q:3/8=60
K:G
G | gf G | dc G/B/ | ed G | gf G |\
ed G/B/ | dc A/G/ | G2 :|
|: B | cA c | ed B | cA B | ed G |\
gf G | ed G/B/ | dc B/A/ | G2 :|
|: d | dba | gBd | cAf | gb d |\
dba | gBd | cAf | g2 :|
|: B | cAf | gbB | cAf | gb B |\
cAf | g2d | dba | gBd | cAf | [DGg]2 :|

